X:1
T:Old Joe Clark
C:Traditional American fiddle tune
M:4/4
L:1/8
Q:1/4=120
K:Ador
|: A2 c2 A2 G2 | E4 D4 | G2 A2 G2 E2 | D8 |
   A2 c2 A2 G2 | E4 D4 | G2 E2 D2 G2 | A8 :|
|: c2 d2 e2 d2 | c2 A2 G4 | A2 B2 c2 A2 | G4 E4 |
   c2 d2 e2 d2 | c2 A2 G4 | A2 G2 E2 D2 | A8 :|
